icons/svg/seamark/pylon_power.svg

<?xml version="1.0" encoding="UTF-8" standalone="no"?>
<svg
   xmlns:dc="http://purl.org/dc/elements/1.1/"
   xmlns:cc="http://creativecommons.org/ns#"
   xmlns:rdf="http://www.w3.org/1999/02/22-rdf-syntax-ns#"
   xmlns:svg="http://www.w3.org/2000/svg"
   xmlns="http://www.w3.org/2000/svg"
   xmlns:sodipodi="http://sodipodi.sourceforge.net/DTD/sodipodi-0.dtd"
   xmlns:inkscape="http://www.inkscape.org/namespaces/inkscape"
   width="580"
   height="580"
   id="svg2"
   version="1.1"
   inkscape:version="0.48.4 r9939"
   sodipodi:docname="anchor_berth.svg">
  <defs
     id="defs13">
    <inkscape:path-effect
       effect="gears"
       id="path-effect3774"
       is_visible="true"
       teeth="6"
       phi="-1.2" />
    <inkscape:path-effect
       effect="bend_path"
       id="path-effect3772"
       is_visible="false"
       bendpath="m 95.790098,316.51174 c 144.429032,-206.42506 223.313032,-11.7428 339.548092,0"
       prop_scale="1.19"
       scale_y_rel="false"
       vertical="false"
       bendpath-nodetypes="cc" />
  </defs>
  <sodipodi:namedview
     pagecolor="#ffffff"
     bordercolor="#666666"
     borderopacity="1"
     objecttolerance="10"
     gridtolerance="10"
     guidetolerance="10"
     inkscape:pageopacity="0"
     inkscape:pageshadow="2"
     inkscape:window-width="1920"
     inkscape:window-height="1004"
     id="namedview11"
     showgrid="false"
     inkscape:zoom="0.5754386"
     inkscape:cx="-83.774605"
     inkscape:cy="273.23571"
     inkscape:window-x="1680"
     inkscape:window-y="0"
     inkscape:window-maximized="1"
     inkscape:current-layer="svg2" />
  <metadata
     id="metadata2975">image/svg+xmlen<rdf:RDF>
  <cc:Work
     rdf:about="">
    <dc:format>image/svg+xml</dc:format>
    <dc:type
       rdf:resource="http://purl.org/dc/dcmitype/StillImage" />
    <dc:title></dc:title>
  </cc:Work>
</rdf:RDF>
</metadata>
  <path
     style="font-size:medium;font-style:normal;font-variant:normal;font-weight:normal;font-stretch:normal;text-indent:0;text-align:start;text-decoration:none;line-height:normal;letter-spacing:normal;word-spacing:normal;text-transform:none;direction:ltr;block-progression:tb;writing-mode:lr-tb;text-anchor:start;baseline-shift:baseline;opacity:0.372;color:#000000;fill:#e4e4e4;fill-opacity:1;fill-rule:nonzero;stroke:#a35151;stroke-width:0;stroke-linecap:round;stroke-linejoin:miter;stroke-miterlimit:4;stroke-opacity:1;stroke-dashoffset:0;marker:none;visibility:visible;display:inline;overflow:visible;enable-background:accumulate;font-family:Sans;-inkscape-font-specification:Sans"
     d="m 322.59375,37.125 -72.03125,0.71875 -0.1875,0 0,0.03125 c 1.71335,0.08654 -16.3533,3.729936 -14.28125,2.875 -0.0313,0.01036 -0.0625,0.02078 -0.0937,0.03125 l -84.09375,35.1875 c -0.57724,0.053 -2.22693,0.330018 -1.9375,0.25 0.52344,-0.144717 -1.61781,0.682283 -3.25,1.40625 l -0.0312,-0.09375 c 0.2403,-0.07347 -1.21152,0.559079 -1.46875,0.71875 -2.71668,1.163316 -5.39466,2.436085 -4.71875,2.03125 l 0.15625,0.25 c -2.82827,1.378489 -5.66152,2.930825 -4.96875,2.4375 1.53597,-1.093771 -9.82951,10.148733 -8.71875,8.625 1.11076,-1.523733 -6.10256,12.73449 -5.53125,10.9375 0.55215,-1.73674 -1.57992,12.43243 -1.75,11.71875 l -0.0625,0 0,0.40625 0,41.78125 0.25,0 c 0.46239,0.49892 3.0298,16.07508 2.25,14.03125 -0.83916,-2.19941 9.82047,14.57058 8.1875,12.875 -1.63297,-1.69558 14.76005,9.57752 12.59375,8.65625 -2.1663,-0.92127 17.3228,3.0625 14.96875,3.0625 -2.35405,0 17.1038,-3.98377 14.9375,-3.0625 -2.1663,0.92127 14.22672,-10.35183 12.59375,-8.65625 -1.63297,1.69558 9.02666,-15.07441 8.1875,-12.875 -0.7798,2.04383 1.78761,-13.53233 2.25,-14.03125 l 0.25,0 0,-5.125 12.0625,0 -6.5625,53.46875 -121.03125,40.875 0.15625,0.4375 c -4.075707,0.86537 -8.181702,1.62996 -7.15625,1.1875 2.113362,-0.91187 -13.884026,10.15194 -12.28125,8.5 1.602776,-1.65194 -8.972618,14.67119 -8.125,12.53125 0.822251,-2.0759 -2.364085,15.27502 -2.59375,14.25 l -0.09375,0 0,0.4375 0,41.75 c -0.001,-2.29727 3.817328,16.77836 2.9375,14.65625 -0.879828,-2.12211 9.906025,13.99906 8.28125,12.375 -1.624775,-1.62406 14.52875,9.1914 12.40625,8.3125 C 71.9713,359.21485 91.016073,363 88.7188,363 c -2.297273,0 16.7475,-3.78515 14.625,-2.90625 -2.1225,0.8789 14.03102,-9.93656 12.40625,-8.3125 -1.62477,1.62406 9.16108,-14.49711 8.28125,-12.375 -0.87983,2.12211 2.93851,-16.95352 2.9375,-14.65625 l 0,-3.9375 60.34375,0 -21.4375,174.3125 c -10e-6,0.0104 -10e-6,0.0208 0,0.0312 0.23861,-1.95186 1.71399,17.73835 1.1875,15.84375 -0.52649,-1.8946 8.3677,15.76765 7.15625,14.21875 -1.21145,-1.5489 13.77447,11.3424 12.0625,10.375 -1.71197,-0.9674 17.07686,5.20736 15.125,4.96875 -1.95186,-0.23861 17.73835,-1.71399 15.84375,-1.1875 -1.8946,0.52649 15.76765,-8.3677 14.21875,-7.15625 -1.5489,1.21145 11.3424,-13.77447 10.375,-12.0625 -0.23703,0.41947 0.67212,-2.31577 1.09375,-3.75 l 47.25,-33.59375 49,34.4375 c 0.47013,1.75005 1.34803,4.69519 1.09375,4.21875 -0.94547,-1.77151 11.90543,13.79352 10.34375,12.53125 -1.56168,-1.26227 16.33664,8.02172 14.40625,7.46875 -1.93039,-0.55297 18.18066,1.03729 16.1875,1.28125 -1.99316,0.24396 17.11503,-6.12723 15.375,-5.125 -1.74003,1.00223 13.39864,-12.35166 12.1875,-10.75 -1.21114,1.60166 7.4903,-16.57225 7,-14.625 -0.46194,1.83461 0.33547,-14.87815 0.6875,-15.28125 l 0.1875,-0.0312 -0.125,-0.90625 -21.40625,-175.21875 58,0 0,4.84375 c 0,0 1.98984,36.1311 37.89863,36.4939 35.90879,0.36281 38.60137,-36.4939 38.60137,-36.4939 l 0,-39.5 -0.59375,0 c -0.0666,-2.69633 -0.0526,-3.24686 0,-5.3125 l 0.5,-0.0312 c 0.016,0.24526 -0.37834,-1.30411 -0.46875,-1.53125 0.03,-0.28295 0.0167,-1.90705 0.0625,-1.65625 l -0.5,0.0937 c -1.07294,-3.72194 -2.99042,-11.47788 -2.34375,-10.03125 0.84861,1.89836 -9.04958,-12.641 -7.59375,-11.15625 1.45583,1.48475 -12.91255,-8.69829 -11.03125,-7.8125 0.70443,0.33167 -2.34,-0.46295 -4.9375,-1.125 l 0.15625,-0.375 c 0.51313,0.21162 -2.18668,-0.34298 -3.5625,-0.5625 -2.46762,-0.70061 -5.44136,-1.53287 -4.6875,-1.46875 l 0,0.0625 -113.3125,-37.25 -6.9375,-56.6875 7.5625,0 0,5.125 0.25,0 c 0.46239,0.49892 3.0298,16.07508 2.25,14.03125 -0.83916,-2.19941 9.82047,14.57058 8.1875,12.875 -1.63297,-1.69558 14.76005,9.57752 12.59375,8.65625 -2.1663,-0.92127 17.3228,3.0625 14.96875,3.0625 -2.35405,0 17.1038,-3.98377 14.9375,-3.0625 -2.1663,0.92127 14.22672,-10.35183 12.59375,-8.65625 -1.63297,1.69558 9.02666,-15.07441 8.1875,-12.875 -0.7798,2.04383 1.78761,-13.53233 2.25,-14.03125 l 0.25,0 0,-38.90625 -0.1875,0 c 0.25016,-2.56203 0.36542,-5.3377 0.40625,-4.625 0.073,1.27364 -1.08299,-4.77342 -1.6875,-8.125 l 0.28125,-0.0625 c 0.0353,0.13994 -0.44124,-0.81734 -0.46875,-0.8125 -0.0879,-0.56748 -0.51449,-2.29448 -0.40625,-2 L 455.75,102.125 c -1.90616,-3.253389 -6.91262,-13.427219 -5.65625,-11.84375 1.06927,1.347658 -4.85294,-3.462851 -8.78125,-6.875 l 0.53125,-0.6875 c 0.35872,0.274875 -1.71509,-0.806617 -2.65625,-1.25 -0.24284,-0.263926 -1.81284,-1.520333 -1.53125,-1.375 L 437.375,80.625 c -3.87751,-1.965451 -8.3556,-4.35164 -7.15625,-3.96875 0.51995,0.165993 -2.04118,-0.182316 -3.53125,-0.34375 l -89.21875,-36.375 c -0.0312,-0.01047 -0.0625,-0.02089 -0.0937,-0.03125 2.1431,0.864751 -16.8561,-2.722833 -14.71875,-2.78125 0.009,-2.38e-4 -0.0719,1.21e-4 -0.0625,0 z m -30.875,342.75 9.96875,7.28125 -11.75,8.34375 -10.0625,-7.0625 z"
     id="path3928"
     inkscape:connector-curvature="0"
     sodipodi:nodetypes="cccccccscccccssscccccssssssscccccccsssccccssssssscccccssssssscccssssssscccccczccccccccsssccccccccccsssssssccccccccccscccccsccccccccccc" />
  <g
     id="g1327"
     transform="matrix(28.917722,0,0,28.917722,58.658082,-16250.937)"
     style="stroke:#2c2c2c;stroke-opacity:1" />
  <path
     style="fill:none;stroke:#000000;stroke-width:25.73265647999999928;stroke-linecap:round;stroke-linejoin:round;stroke-miterlimit:4;stroke-opacity:1;stroke-dasharray:none"
     d="M 206.30242,500.20269 252.99615,120.3661"
     inkscape:connector-curvature="0"
     sodipodi:nodetypes="cc"
     id="path7" />
  <path
     style="fill:none;stroke:#000000;stroke-width:25.73265647999999928;stroke-linecap:round;stroke-linejoin:round;stroke-miterlimit:4;stroke-opacity:1;stroke-dasharray:none"
     d="M 376.15818,501.99848 329.46445,120.3661"
     inkscape:connector-curvature="0"
     sodipodi:nodetypes="cc"
     id="path3806-9" />
  <path
     style="color:#000000;fill:none;stroke:#000000;stroke-width:20.66880225999999965;stroke-linecap:round;stroke-linejoin:round;stroke-miterlimit:4;stroke-opacity:1;stroke-dasharray:none;stroke-dashoffset:0;marker:none;visibility:visible;display:inline;overflow:visible;enable-background:accumulate"
     d="m 160.46148,113.18265 257.71386,0"
     inkscape:connector-curvature="0"
     sodipodi:nodetypes="cc"
     id="path10" />
  <path
     style="color:#000000;fill:none;stroke:#000000;stroke-width:20.66880225999999965;stroke-linecap:round;stroke-linejoin:round;stroke-miterlimit:4;stroke-opacity:1;stroke-dasharray:none;stroke-dashoffset:0;marker:none;visibility:visible;display:inline;overflow:visible;enable-background:accumulate"
     d="m 161.35937,113.54181 89.34679,-37.355054 72.28563,-0.71716 96.97963,39.510004"
     inkscape:connector-curvature="0"
     sodipodi:nodetypes="cccc"
     id="path12" />
  <path
     style="color:#000000;fill:none;stroke:#000000;stroke-width:20.66880225999999965;stroke-linecap:round;stroke-linejoin:round;stroke-miterlimit:4;stroke-opacity:1;stroke-dasharray:none;stroke-dashoffset:0;marker:none;visibility:visible;display:inline;overflow:visible;enable-background:accumulate"
     d="m 157.81261,114.3515 0,42.20398"
     inkscape:connector-curvature="0"
     id="path14" />
  <path
     style="color:#000000;fill:none;stroke:#000000;stroke-width:20.66880225999999965;stroke-linecap:round;stroke-linejoin:round;stroke-miterlimit:4;stroke-opacity:1;stroke-dasharray:none;stroke-dashoffset:0;marker:none;visibility:visible;display:inline;overflow:visible;enable-background:accumulate"
     d="m 420.12035,114.3515 0,42.20398"
     inkscape:connector-curvature="0"
     id="path16" />
  <path
     style="color:#000000;fill:none;stroke:#000000;stroke-width:20.66880225999999965;stroke-linecap:round;stroke-linejoin:round;stroke-miterlimit:4;stroke-opacity:1;stroke-dasharray:none;stroke-dashoffset:0;marker:none;visibility:visible;display:inline;overflow:visible;enable-background:accumulate"
     d="m 89.346722,282.66682 398.959008,0"
     inkscape:connector-curvature="0"
     sodipodi:nodetypes="cc"
     id="path18" />
  <path
     style="color:#000000;fill:none;stroke:#000000;stroke-width:20.66880225999999965;stroke-linecap:round;stroke-linejoin:round;stroke-miterlimit:4;stroke-opacity:1;stroke-dasharray:none;stroke-dashoffset:0;marker:none;visibility:visible;display:inline;overflow:visible;enable-background:accumulate"
     d="m 90.736802,282.66682 138.315188,-46.69403 111.90292,-0.89934 150.13097,49.38771"
     inkscape:connector-curvature="0"
     sodipodi:nodetypes="cccc"
     id="path20" />
  <path
     style="color:#000000;fill:none;stroke:#000000;stroke-width:20.66880225999999965;stroke-linecap:round;stroke-linejoin:round;stroke-miterlimit:4;stroke-opacity:1;stroke-dasharray:none;stroke-dashoffset:0;marker:none;visibility:visible;display:inline;overflow:visible;enable-background:accumulate"
     d="m 88.669762,282.66682 0,42.20396"
     inkscape:connector-curvature="0"
     id="path22" />
  <path
     style="color:#000000;fill:none;stroke:#000000;stroke-width:20.66880225999999965;stroke-linecap:round;stroke-linejoin:round;stroke-miterlimit:4;stroke-opacity:1;stroke-dasharray:none;stroke-dashoffset:0;marker:none;visibility:visible;display:inline;overflow:visible;enable-background:accumulate"
     d="m 491.33024,283.56471 0,42.20397"
     inkscape:connector-curvature="0"
     id="path24" />
  <path
     style="fill:none;stroke:#000000;stroke-width:15.50160027000000085;stroke-linecap:round;stroke-linejoin:round;stroke-miterlimit:4;stroke-opacity:1;stroke-dasharray:none"
     d="M 208.09822,497.50872 362.54719,387.67834 220.64474,283.81022"
     inkscape:connector-curvature="0"
     sodipodi:nodetypes="ccc"
     id="path26" />
  <path
     style="fill:none;stroke:#000000;stroke-width:15.50160027000000085;stroke-linecap:butt;stroke-linejoin:round;stroke-miterlimit:4;stroke-opacity:1;stroke-dasharray:none"
     d="M 372.88151,497.50872 218.43254,388.95564 360.33498,286.29512"
     inkscape:connector-curvature="0"
     sodipodi:nodetypes="ccc"
     id="path28" />
  <path
     style="color:#000000;fill:none;stroke:#000000;stroke-width:15.50160027000000085;stroke-linecap:butt;stroke-linejoin:miter;stroke-miterlimit:4;stroke-opacity:1;stroke-dasharray:none;stroke-dashoffset:0;marker:none;visibility:visible;display:inline;overflow:visible;enable-background:accumulate"
     d="m 237.73079,283.48663 97.87752,-87.11521 -77.22449,-75.99375"
     inkscape:connector-curvature="0"
     sodipodi:nodetypes="ccc"
     id="path30" />
  <path
     style="color:#000000;fill:none;stroke:#000000;stroke-width:15.50160027000000085;stroke-linecap:butt;stroke-linejoin:miter;stroke-miterlimit:4;stroke-opacity:1;stroke-dasharray:none;stroke-dashoffset:0;marker:none;visibility:visible;display:inline;overflow:visible;enable-background:accumulate"
     d="M 345.1393,283.11967 247.26177,196.00474 324.48626,120.0107"
     inkscape:connector-curvature="0"
     sodipodi:nodetypes="ccc"
     id="path32" />
  <g
     id="g1327-1"
     transform="matrix(28.917722,0,0,28.917722,-454.986,-16233.733)"
     style="stroke:#2c2c2c;stroke-opacity:1" />
</svg>

<svg width="580" height="580" viewBox="0 0 580 580" fill="none" xmlns="http://www.w3.org/2000/svg">
<path opacity="0.372" d="M322.594 37.1251L250.562 37.8438H250.375V37.8751C252.088 37.9616 234.022 41.605 236.094 40.7501C236.062 40.7604 236.031 40.7709 236 40.7813L151.906 75.9688C151.329 76.0218 149.679 76.2989 149.969 76.2188C150.492 76.0741 148.351 76.9011 146.719 77.6251L146.688 77.5313C146.928 77.4579 145.476 78.0904 145.219 78.2501C142.502 79.4134 139.824 80.6862 140.5 80.2813L140.656 80.5313C137.828 81.9098 134.995 83.4622 135.688 82.9688C137.223 81.8751 125.858 93.1176 126.969 91.5938C128.08 90.0701 120.866 104.328 121.438 102.531C121.99 100.795 119.858 114.964 119.688 114.25H119.625V114.656V156.438H119.875C120.337 156.937 122.905 172.513 122.125 170.469C121.286 168.269 131.945 185.039 130.313 183.344C128.68 181.648 145.073 192.921 142.906 192C140.74 191.079 160.229 195.063 157.875 195.063C155.521 195.063 174.979 191.079 172.813 192C170.646 192.921 187.039 181.648 185.406 183.344C183.773 185.039 194.433 168.269 193.594 170.469C192.814 172.513 195.381 156.937 195.844 156.438H196.094V151.313H208.156L201.594 204.781L80.5625 245.656L80.7188 246.094C76.643 246.959 72.537 247.724 73.5625 247.281C75.6759 246.369 59.6785 257.433 61.2812 255.781C62.884 254.129 52.3086 270.453 53.1563 268.313C53.9785 266.237 50.7922 283.588 50.5625 282.563H50.4688V283V324.75C50.4678 322.453 54.2861 341.528 53.4063 339.406C52.5264 337.284 63.3123 353.405 61.6875 351.781C60.0627 350.157 76.2162 360.973 74.0938 360.094C71.9712 359.215 91.016 363 88.7187 363C86.4214 363 105.466 359.215 103.344 360.094C101.221 360.973 117.375 350.157 115.75 351.781C114.125 353.405 124.911 337.284 124.031 339.406C123.151 341.528 126.97 322.453 126.969 324.75V320.813H187.312L165.875 495.125C165.875 495.135 165.875 495.146 165.875 495.156C166.114 493.204 167.589 512.895 167.062 511C166.536 509.105 175.43 526.768 174.219 525.219C173.007 523.67 187.993 536.561 186.281 535.594C184.569 534.626 203.358 540.801 201.406 540.563C199.454 540.324 219.145 538.849 217.25 539.375C215.355 539.902 233.018 531.007 231.469 532.219C229.92 533.43 242.811 518.444 241.844 520.156C241.607 520.576 242.516 517.841 242.937 516.406L290.187 482.813L339.187 517.25C339.658 519 340.535 521.945 340.281 521.469C339.336 519.697 352.187 535.262 350.625 534C349.063 532.738 366.962 542.022 365.031 541.469C363.101 540.916 383.212 542.506 381.219 542.75C379.226 542.994 398.334 536.623 396.594 537.625C394.854 538.627 409.992 525.273 408.781 526.875C407.57 528.477 416.272 510.303 415.781 512.25C415.319 514.085 416.117 497.372 416.469 496.969L416.656 496.938L416.531 496.031L395.125 320.813H453.125V325.656C453.125 325.656 455.115 361.787 491.024 362.15C526.932 362.513 529.625 325.656 529.625 325.656V286.156H529.031C528.965 283.46 528.979 282.909 529.031 280.844L529.531 280.813C529.547 281.058 529.153 279.509 529.062 279.281C529.092 278.998 529.079 277.374 529.125 277.625L528.625 277.719C527.552 273.997 525.635 266.241 526.281 267.688C527.13 269.586 517.232 255.047 518.687 256.531C520.143 258.016 505.775 247.833 507.656 248.719C508.361 249.05 505.316 248.256 502.719 247.594L502.875 247.219C503.388 247.43 500.688 246.876 499.312 246.656C496.845 245.956 493.871 245.123 494.625 245.188V245.25L381.312 208L374.375 151.313H381.937V156.438H382.187C382.65 156.937 385.217 172.513 384.437 170.469C383.598 168.269 394.258 185.039 392.625 183.344C390.992 181.648 407.385 192.921 405.219 192C403.052 191.079 422.542 195.063 420.187 195.063C417.833 195.063 437.291 191.079 435.125 192C432.959 192.921 449.352 181.648 447.719 183.344C446.086 185.039 456.745 168.269 455.906 170.469C455.126 172.513 457.694 156.937 458.156 156.438H458.406V117.531H458.219C458.469 114.969 458.584 112.194 458.625 112.906C458.698 114.18 457.542 108.133 456.937 104.781L457.219 104.719C457.254 104.859 456.777 103.901 456.75 103.906C456.662 103.339 456.235 101.612 456.344 101.906L455.75 102.125C453.844 98.8717 448.837 88.6979 450.094 90.2813C451.163 91.629 445.241 86.8185 441.312 83.4063L441.844 82.7188C442.202 82.9937 440.129 81.9122 439.187 81.4688C438.945 81.2049 437.375 79.9485 437.656 80.0938L437.375 80.6251C433.497 78.6596 429.019 76.2734 430.219 76.6563C430.739 76.8223 428.177 76.474 426.687 76.3126L337.469 39.9376C337.437 39.9271 337.406 39.9167 337.375 39.9063C339.518 40.7711 320.519 37.1835 322.656 37.1251C322.665 37.1248 322.584 37.1252 322.594 37.1251H322.594ZM291.719 379.875L301.687 387.156L289.937 395.5L279.875 388.438L291.719 379.875Z" fill="#E4E4E4"/>
<path d="M206.302 500.202L252.996 120.365" stroke="black" stroke-width="25.7327" stroke-linecap="round" stroke-linejoin="round"/>
<path d="M376.158 501.998L329.464 120.365" stroke="black" stroke-width="25.7327" stroke-linecap="round" stroke-linejoin="round"/>
<path d="M160.461 113.184H418.175" stroke="black" stroke-width="20.6688" stroke-linecap="round" stroke-linejoin="round"/>
<path d="M161.359 113.541L250.706 76.1859L322.992 75.4688L419.971 114.979" stroke="black" stroke-width="20.6688" stroke-linecap="round" stroke-linejoin="round"/>
<path d="M157.812 114.352V156.556" stroke="black" stroke-width="20.6688" stroke-linecap="round" stroke-linejoin="round"/>
<path d="M420.12 114.352V156.556" stroke="black" stroke-width="20.6688" stroke-linecap="round" stroke-linejoin="round"/>
<path d="M89.3467 282.666H488.306" stroke="black" stroke-width="20.6688" stroke-linecap="round" stroke-linejoin="round"/>
<path d="M90.7368 282.668L229.052 235.974L340.955 235.074L491.086 284.462" stroke="black" stroke-width="20.6688" stroke-linecap="round" stroke-linejoin="round"/>
<path d="M88.6697 282.666V324.87" stroke="black" stroke-width="20.6688" stroke-linecap="round" stroke-linejoin="round"/>
<path d="M491.33 283.564V325.768" stroke="black" stroke-width="20.6688" stroke-linecap="round" stroke-linejoin="round"/>
<path d="M208.098 497.509L362.547 387.679L220.645 283.811" stroke="black" stroke-width="15.5016" stroke-linecap="round" stroke-linejoin="round"/>
<path d="M372.882 497.509L218.433 388.955L360.335 286.295" stroke="black" stroke-width="15.5016" stroke-linejoin="round"/>
<path d="M237.731 283.486L335.608 196.371L258.384 120.377" stroke="black" stroke-width="15.5016"/>
<path d="M345.139 283.119L247.262 196.004L324.486 120.01" stroke="black" stroke-width="15.5016"/>
</svg>
